symbolic/24x24/apps/appimagekit-diffuse.svg

<svg xmlns="http://www.w3.org/2000/svg" width="24" height="24" version="1.1">
 <circle style="opacity:0.2" cx="12" cy="12.5" r="10"/>
 <circle style="fill:#8390a6" cx="12" cy="12" r="10"/>
 <path style="opacity:0.2;fill:#ffffff" d="M 12,2 A 10,10 0 0 0 2,12 10,10 0 0 0 2.01075,12.291 10,10 0 0 1 12,2.5 10,10 0 0 1 21.9895,12.209 10,10 0 0 0 22,12 10,10 0 0 0 12,2 Z"/>
 <path style="opacity:0.2" d="m 6.7606815,7.5 c -1.014242,-0.014345 -1.014242,1.514344 0,1.5 h 0.444336 1.036133 c 1.012287,-0.014345 1.012287,1.514344 0,1.5 H 7.412049 5.7606815 c -1.014242,-0.01435 -1.014242,1.514344 0,1.5 h 1.480469 0.00879 C 7.9619675,11.9912 8.21232,12.807744 7.8348565,13.243523 7.6187835,13.491921 7.4999395,13.5 7.2499395,13.5 h -0.489258 c -1.014242,-0.01435 -1.014242,1.514344 0,1.5 h 1.140625 c 0.066997,0.02886 0.114258,0.09511 0.114258,0.172852 v 1.941406 c 0.00325,0.211861 0.1748575,0.3825 0.386719,0.385742 H 13.22455 c 1.429427,0 2.582118,-0.333639 3.458007,-1 0.875887,-0.66636 1.313949,-1.648321 1.314453,-2.946289 v -2.125 C 17.998009,10.191184 17.54797,9.227174 16.647401,8.536133 15.747336,7.845596 14.60297,7.5 13.212831,7.5 h -0.952149 z m 5.2392585,3 h 0.928711 c 0.713494,0 1.070785,0.344246 1.071289,1.032227 v 1.920898 c 0,0.344672 -0.0976,0.605276 -0.292969,0.78125 -0.207995,0.181052 -0.489743,0.276775 -0.77832,0.264649 H 11.99994 Z"/>
 <path id="Shape" style="fill:#ffffff" d="m 6.7606815,7 c -1.014242,-0.014345 -1.014242,1.514344 0,1.5 h 0.444336 1.036133 c 1.012287,-0.014345 1.012287,1.514344 0,1.5 H 7.412049 5.7606815 c -1.014242,-0.014345 -1.014242,1.514344 0,1.5 h 1.480469 0.00879 C 7.9619675,11.4912 8.21232,12.307744 7.8348565,12.743523 7.6187835,12.991921 7.4999395,13 7.2499395,13 h -0.489258 c -1.014242,-0.01435 -1.014242,1.514344 0,1.5 h 1.140625 c 0.066997,0.02886 0.114258,0.09511 0.114258,0.172852 v 1.941406 C 8.0188145,16.826119 8.190422,16.996758 8.4022835,17 H 13.22455 c 1.429427,0 2.582118,-0.333639 3.458007,-1 0.875887,-0.66636 1.313949,-1.648321 1.314453,-2.946289 v -2.125 C 17.998009,9.691184 17.54797,8.727174 16.647401,8.036133 15.747336,7.345596 14.60297,7 13.212831,7 h -0.952149 z m 5.2392585,3 h 0.928711 c 0.713494,0 1.070785,0.344246 1.071289,1.032227 v 1.920898 c 0,0.344672 -0.0976,0.605276 -0.292969,0.78125 -0.207995,0.181052 -0.489743,0.276775 -0.77832,0.264649 H 11.99994 Z"/>
</svg>

<svg xmlns="http://www.w3.org/2000/svg" width="24" height="24"><circle style="opacity:.2" cx="12" cy="12.5" r="10"/><circle style="fill:#8390a6" cx="12" cy="12" r="10"/><path style="opacity:.2;fill:#fff" d="M12 2A10 10 0 0 0 2 12a10 10 0 0 0 .01.291A10 10 0 0 1 12 2.5a10 10 0 0 1 9.99 9.709A10 10 0 0 0 22 12 10 10 0 0 0 12 2z"/><path style="opacity:.2" d="M6.76 7.5c-1.014-.014-1.014 1.514 0 1.5h1.481c1.012-.014 1.012 1.514 0 1.5h-2.48c-1.015-.014-1.015 1.514 0 1.5H7.25c.712-.009.962.808.585 1.244-.216.248-.335.256-.585.256h-.49c-1.014-.014-1.014 1.514 0 1.5h1.141a.188.188 0 0 1 .115.173v1.941a.392.392 0 0 0 .386.386h4.823c1.429 0 2.582-.334 3.458-1 .875-.666 1.314-1.648 1.314-2.946v-2.125c.001-1.238-.449-2.202-1.35-2.893-.9-.69-2.044-1.036-3.434-1.036h-.952zm5.24 3h.929c.713 0 1.07.344 1.07 1.032v1.921c0 .345-.097.605-.292.781-.208.181-.49.277-.778.265h-.93z"/><path style="fill:#fff" d="M6.76 7c-1.014-.014-1.014 1.514 0 1.5h1.481c1.012-.014 1.012 1.514 0 1.5h-2.48c-1.015-.014-1.015 1.514 0 1.5H7.25c.712-.009.962.808.585 1.244-.216.248-.335.256-.585.256h-.49c-1.014-.014-1.014 1.514 0 1.5h1.141a.188.188 0 0 1 .115.173v1.941a.392.392 0 0 0 .386.386h4.823c1.429 0 2.582-.334 3.458-1 .875-.666 1.314-1.648 1.314-2.946v-2.125c.001-1.238-.449-2.202-1.35-2.893-.9-.69-2.044-1.036-3.434-1.036h-.952zM12 10h.929c.713 0 1.07.344 1.07 1.032v1.921c0 .345-.097.605-.292.781-.208.181-.49.277-.778.265h-.93z"/></svg>
